Numix-GalliumOS/32/mimetypes/application-json.svg

<?xml version="1.0" encoding="UTF-8" standalone="no"?>
<svg
   xmlns:dc="http://purl.org/dc/elements/1.1/"
   xmlns:cc="http://creativecommons.org/ns#"
   xmlns:rdf="http://www.w3.org/1999/02/22-rdf-syntax-ns#"
   xmlns:svg="http://www.w3.org/2000/svg"
   xmlns="http://www.w3.org/2000/svg"
   xmlns:sodipodi="http://sodipodi.sourceforge.net/DTD/sodipodi-0.dtd"
   xmlns:inkscape="http://www.inkscape.org/namespaces/inkscape"
   width="32"
   height="32"
   viewBox="0 0 32 32"
   id="svg2"
   version="1.1"
   inkscape:version="0.91 r13725"
   sodipodi:docname="application-json-neu.svg">
  <metadata
     id="metadata20">
    <rdf:RDF>
      <cc:Work
         rdf:about="">
        <dc:format>image/svg+xml</dc:format>
        <dc:type
           rdf:resource="http://purl.org/dc/dcmitype/StillImage" />
        <dc:title></dc:title>
      </cc:Work>
    </rdf:RDF>
  </metadata>
  <defs
     id="defs18" />
  <sodipodi:namedview
     pagecolor="#ffffff"
     bordercolor="#666666"
     borderopacity="1"
     objecttolerance="10"
     gridtolerance="10"
     guidetolerance="10"
     inkscape:pageopacity="0"
     inkscape:pageshadow="2"
     inkscape:window-width="1366"
     inkscape:window-height="713"
     id="namedview16"
     showgrid="false"
     inkscape:zoom="1"
     inkscape:cx="21.989056"
     inkscape:cy="13.628799"
     inkscape:window-x="0"
     inkscape:window-y="28"
     inkscape:window-maximized="1"
     inkscape:current-layer="svg2">
    <inkscape:grid
       type="xygrid"
       id="grid3008" />
  </sodipodi:namedview>
  <path
     style="fill:#e5b819;fill-opacity:1"
     d="M 5.335888,2.977e-4 C 4.648414,3.127e-4 4,0.6767877 4,1.3940317 L 4,30.606268 C 4,31.282757 4.687474,32 5.335888,32 l 21.327332,0 c 0.648414,0 1.335888,-0.717243 1.335888,-1.393732 L 28,8.9999997 l -9,-9 z"
     id="path4-1"
     inkscape:connector-curvature="0"
     sodipodi:nodetypes="ssssssccs" />
  <path
     style="fill:#000000;fill-opacity:0.19599998"
     d="M 21,8.9999997 28,16 28,8.9999997 z"
     id="path6-4"
     inkscape:connector-curvature="0"
     sodipodi:nodetypes="cccc" />
  <path
     style="fill:#ffffff;fill-opacity:0.39200003"
     d="m 19.000306,2.977e-4 8.991594,8.999702 -7.613262,0 c -0.672951,0 -1.378332,-0.713489 -1.378332,-1.38644 z"
     id="path8-6"
     inkscape:connector-curvature="0"
     sodipodi:nodetypes="ccssc" />
  <g
     id="g3338"
     transform="matrix(2,0,0,1.9663864,0,-0.5630232)">
    <path
       sodipodi:nodetypes="csccccccc"
       inkscape:connector-curvature="0"
       id="path3364-3"
       d="m 8,6.3888885 c -1.8869431,0 -3.5,1.4074436 -3.5,3.3055558 C 4.5,11.347222 5.6651619,12.586806 6.9111111,13 6.0832852,12.430554 5.3235293,11.347222 5.3235293,10.107639 c 0,-1.4276426 1.029412,-2.4791669 2.2272103,-2.4791669 1.1183781,0 1.8861556,1.0689674 1.8904369,2.0659722 0,0.6998627 -0.5717376,1.2753087 -1.0294116,1.6527777 0.8235293,0 1.8529411,-0.684353 1.8529411,-2.065972 C 10.264706,8.0416664 9.2352942,6.3888885 8,6.3888885 Z"
       style="fill:#ffffff;fill-opacity:1;fill-rule:evenodd;stroke:none;stroke-width:1px;stroke-linecap:butt;stroke-linejoin:miter;stroke-opacity:1" />
    <path
       style="fill:#ffffff;fill-opacity:1;fill-rule:evenodd;stroke:none;stroke-width:1px;stroke-linecap:butt;stroke-linejoin:miter;stroke-opacity:1"
       d="m 8,13 c 1.8869427,0 3.5,-1.407444 3.5,-3.3055557 0,-1.6527779 -1.165162,-2.8923616 -2.4111111,-3.3055558 0.8278257,0.5694447 1.5875821,1.6527779 1.5875821,2.8923615 0,1.427642 -1.0294123,2.479166 -2.2272106,2.479166 -1.1183781,0 -1.8861556,-1.068967 -1.8904369,-2.0659718 0,-0.6998626 0.5717377,-1.275309 1.0294116,-1.6527778 -0.8235293,0 -1.8529409,0.6843532 -1.8529409,2.0659716 C 5.7352942,11.347222 6.7647058,13 8,13 Z"
       id="path4189-8"
       inkscape:connector-curvature="0"
       sodipodi:nodetypes="csccccccc" />
  </g>
</svg>

<svg xmlns="http://www.w3.org/2000/svg" viewBox="0 0 32 32">
 <path d="m 5.336 0 c -0.687 0 -1.336 0.676 -1.336 1.394 l 0 29.21 c 0 0.676 0.687 1.394 1.336 1.394 l 21.327 0 c 0.648 0 1.336 -0.717 1.336 -1.394 l 0.001 -21.606 l -9 -9 z" style="fill:#e5b819;fill-opacity:1"/>
 <path d="m 21 9 7 7 0 -7 z" style="fill:#000;fill-opacity:0.196"/>
 <path d="m 19 0 8.992 9 -7.613 0 c -0.673 0 -1.378 -0.713 -1.378 -1.386 z" style="fill:#fff;fill-opacity:0.392"/>
 <g transform="matrix(2,0,0,1.9663864,0,-0.5630232)">
  <path d="m 8 6.389 c -1.887 0 -3.5 1.407 -3.5 3.306 c 0 1.653 1.165 2.892 2.411 3.306 -0.828 -0.569 -1.588 -1.653 -1.588 -2.892 c 0 -1.428 1.029 -2.479 2.227 -2.479 1.118 0 1.886 1.069 1.89 2.066 0 0.7 -0.572 1.275 -1.029 1.653 0.824 0 1.853 -0.684 1.853 -2.066 c 0 -1.24 -1.029 -2.892 -2.265 -2.892" style="fill:#fff;fill-opacity:1;stroke:none;fill-rule:evenodd"/>
  <path d="m 8 13 c 1.887 0 3.5 -1.407 3.5 -3.306 0 -1.653 -1.165 -2.892 -2.411 -3.306 0.828 0.569 1.588 1.653 1.588 2.892 0 1.428 -1.029 2.479 -2.227 2.479 -1.118 0 -1.886 -1.069 -1.89 -2.066 0 -0.7 0.572 -1.275 1.029 -1.653 -0.824 0 -1.853 0.684 -1.853 2.066 c 0 1.24 1.029 2.892 2.265 2.892" style="fill:#fff;fill-opacity:1;stroke:none;fill-rule:evenodd"/>
 </g>
</svg>
